webapp/src/assets/icons/cloudproviders/aws/security_identify_compliance/iam_addon.svg

<svg width="48" height="48" xmlns="http://www.w3.org/2000/svg"><path d="M10.149 26.404a2.13 2.13 0 0 1-2.128-2.127 2.13 2.13 0 0 1 2.128-2.128 2.13 2.13 0 0 1 2.128 2.128 2.13 2.13 0 0 1-2.128 2.127Zm0-6.255a4.133 4.133 0 0 0-4.128 4.128 4.133 4.133 0 0 0 4.128 4.127 4.133 4.133 0 0 0 4.128-4.127 4.133 4.133 0 0 0-4.128-4.128Zm31.711 6.255H23.062a1 1 0 0 0-.953.698 9.223 9.223 0 0 1-8.832 6.451C8.162 33.553 4 29.392 4 24.277S8.162 15 13.277 15a9.223 9.223 0 0 1 8.832 6.451 1 1 0 0 0 .953.698h3.172a.997.997 0 0 0 .707-.293l1.974-1.973 1.974 1.973a1 1 0 0 0 .707.293h1.787c.266 0 .52-.105.707-.293l1.974-1.973 1.974 1.973a.996.996 0 0 0 .707.293h2.304l2.548 2.229-1.737 2.026Zm3.799-2.88-3.575-3.128a1.001 1.001 0 0 0-.659-.247h-2.266l-2.388-2.388a1 1 0 0 0-1.414 0l-2.388 2.388h-.959l-2.388-2.388a1 1 0 0 0-1.414 0l-2.388 2.388h-2.051C22.091 15.843 17.964 13 13.277 13 7.058 13 2 18.058 2 24.277c0 6.218 5.058 11.276 11.277 11.276 4.687 0 8.814-2.843 10.492-7.149H42.32a.999.999 0 0 0 .759-.35l2.68-3.127a.998.998 0 0 0-.1-1.403Z" fill="#DD344C" fill-rule="evenodd"/></svg>

<?xml version="1.0" encoding="UTF-8"?>
<svg width="48px" height="48px" viewBox="0 0 48 48" version="1.1" xmlns="http://www.w3.org/2000/svg" xmlns:xlink="http://www.w3.org/1999/xlink">
    <title>Icon-Resource/Security-Identity-and-Compliance/Res_AWS-Identity-Access-Management_Add-on_48</title>
    <g id="Icon-Resource/Security-Identity-and-Compliance/Res_AWS-Identity-Access-Management_Add-on_48" stroke="none" stroke-width="1" fill="none" fill-rule="evenodd">
        <path d="M10.149,26.404 C8.975,26.404 8.021,25.45 8.021,24.277 C8.021,23.103 8.975,22.149 10.149,22.149 C11.323,22.149 12.277,23.103 12.277,24.277 C12.277,25.45 11.323,26.404 10.149,26.404 L10.149,26.404 Z M10.149,20.149 C7.873,20.149 6.021,22.001 6.021,24.277 C6.021,26.552 7.873,28.404 10.149,28.404 C12.425,28.404 14.277,26.552 14.277,24.277 C14.277,22.001 12.425,20.149 10.149,20.149 L10.149,20.149 Z M41.86,26.404 L23.062,26.404 C22.627,26.404 22.241,26.686 22.109,27.102 C20.886,30.961 17.337,33.553 13.277,33.553 C8.162,33.553 4,29.392 4,24.277 C4,19.162 8.162,15 13.277,15 C17.337,15 20.886,17.592 22.109,21.451 C22.241,21.867 22.627,22.149 23.062,22.149 L26.234,22.149 C26.5,22.149 26.753,22.044 26.941,21.856 L28.915,19.883 L30.889,21.856 C31.077,22.044 31.331,22.149 31.596,22.149 L33.383,22.149 C33.649,22.149 33.903,22.044 34.09,21.856 L36.064,19.883 L38.038,21.856 C38.225,22.044 38.479,22.149 38.745,22.149 L41.049,22.149 L43.597,24.378 L41.86,26.404 Z M45.659,23.524 L42.084,20.396 C41.902,20.237 41.668,20.149 41.425,20.149 L39.159,20.149 L36.771,17.761 C36.38,17.371 35.748,17.371 35.357,17.761 L32.969,20.149 L32.01,20.149 L29.622,17.761 C29.231,17.371 28.598,17.371 28.208,17.761 L25.82,20.149 L23.769,20.149 C22.091,15.843 17.964,13 13.277,13 C7.058,13 2,18.058 2,24.277 C2,30.495 7.058,35.553 13.277,35.553 C17.964,35.553 22.091,32.71 23.769,28.404 L42.32,28.404 C42.612,28.404 42.889,28.276 43.079,28.054 L45.759,24.927 C46.117,24.511 46.072,23.885 45.659,23.524 L45.659,23.524 Z" id="Icon-Resource/Security-Identity-and-Compliance/Res_Add-On_48" fill="#DD344C"></path>
    </g>
</svg>
